Newaita-dark/apps/16/gnome-nibbles.svg

<svg height="16" viewBox="0 0 16 16" width="16" xmlns="http://www.w3.org/2000/svg" xmlns:xlink="http://www.w3.org/1999/xlink"><linearGradient id="a" gradientUnits="userSpaceOnUse" x1="7.93826" x2="7.93826" y1="14.0169685" y2="14.67849050002"><stop offset="0" stop-opacity=".27451"/><stop offset="1" stop-opacity="0"/></linearGradient><linearGradient id="b"><stop offset="0" stop-opacity=".313726"/><stop offset=".222222" stop-opacity=".27451"/><stop offset="1" stop-opacity="0"/></linearGradient><radialGradient id="c" cx="450.908936" cy="189.579361" gradientTransform="matrix(.00000009 -.0390662 -.0703192 -.00000005 26.065324 31.797666)" gradientUnits="userSpaceOnUse" r="21.166656" xlink:href="#b"/><radialGradient id="d" cx="450.908936" cy="189.579361" gradientTransform="matrix(-.00000009 .0390662 .0703192 .00000005 -10.188807 -3.763739)" gradientUnits="userSpaceOnUse" r="21.166656" xlink:href="#b"/><radialGradient id="e" cx="450.908936" cy="189.579361" gradientTransform="matrix(-.00000009 -.0390662 .0703192 -.00000005 -10.188807 31.797666)" gradientUnits="userSpaceOnUse" r="21.166656" xlink:href="#b"/><radialGradient id="f" cx="450.908936" cy="189.579361" gradientTransform="matrix(.00000009 .0390662 -.0703192 .00000005 26.065323 -3.76374)" gradientUnits="userSpaceOnUse" r="21.166656" xlink:href="#b"/><linearGradient id="g" gradientUnits="userSpaceOnUse" x1="5.29217449998" x2="5.29217449998" y1="14.0169675" y2="1.44805300003"><stop offset="0" stop-color="#424242"/><stop offset="1" stop-color="#616161"/></linearGradient><linearGradient id="h" gradientUnits="userSpaceOnUse" x1="4.7960316" x2="4.7960316" y1="10.70935800048" y2="9.55169520048"><stop offset="0" stop-color="#ef5350"/><stop offset="1" stop-color="#e57373"/></linearGradient><path d="m2.976562 13.96875h9.921876v.734375h-9.921876zm0 0" fill="url(#a)"/><path d="m12.898438 14.015625h1.324218v-.660156h-1.324218zm0 0" fill="url(#c)"/><path d="m2.976562 14.015625h-1.324218v.664063h1.324218zm0 0" fill="url(#d)"/><path d="m2.976562 14.015625h-1.324218v-.660156h1.324218zm0 0" fill="url(#e)"/><path d="m12.898438 14.015625h1.324218v.664063h-1.324218zm0 0" fill="url(#f)"/><path d="m2.316406 1.449219h11.246094c.363281 0 .660156.296875.660156.660156v11.246094c0 .367187-.296875.660156-.660156.660156h-11.246094c-.367187 0-.664062-.292969-.664062-.660156v-11.246094c0-.363281.296875-.660156.664062-.660156zm0 0" fill="url(#g)"/><path d="m2.316406 1.449219c-.367187 0-.664062.292969-.664062.660156v.082031c0-.367187.296875-.660156.664062-.660156h11.246094c.363281 0 .660156.292969.660156.660156v-.082031c0-.367187-.296875-.660156-.660156-.660156zm0 0" fill="#e6e6e6" fill-opacity=".392157"/><path d="m2.316406 14.015625c-.367187 0-.664062-.292969-.664062-.660156v-.082031c0 .367187.296875.660156.664062.660156h11.246094c.363281 0 .660156-.292969.660156-.660156v.082031c0 .367187-.296875.660156-.660156.660156zm0 0" fill-opacity=".196078"/><path d="m74.117922-168.629428h359.840637c11.62389 0 21.122983 9.499093 21.122983 21.122983v359.840637c0 11.748878-9.499093 21.122982-21.122983 21.122982h-359.840637c-11.748878 0-21.247971-9.374104-21.247971-21.122982v-359.840637c0-11.62389 9.499093-21.122983 21.247971-21.122983zm0 0" fill="none" stroke="#212121" stroke-linecap="round" stroke-width="3" transform="matrix(.031253 0 0 .031253 0 6.719392)"/><path d="m4.796875 4.257812c-.183594 0-.332031.148438-.332031.332032v3.144531c0 .179687.148437.328125.332031.328125s.328125-.148438.328125-.328125v-2.8125h2.484375v5.457031c0 .183594.128906.332032.289063.332032h3.183593c.183594 0 .328125-.148438.328125-.332032s-.144531-.332031-.328125-.332031h-2.8125v-5.457031c0-.183594-.128906-.332032-.289062-.332032zm0 0" fill="#81c784"/><path d="m4.464844 9.550781c-.183594 0-.332032.148438-.332032.332031v.496094c0 .183594.148438.332032.332032.332032h.660156c.183594 0 .332031-.148438.332031-.332032v-.496094c0-.183593-.148437-.332031-.332031-.332031h-.164062v.167969c0 .089844-.074219.164062-.164063.164062-.09375 0-.167969-.074218-.167969-.164062v-.167969zm0 0" fill="url(#h)"/><path d="m4.796875 9.136719c.136719 0 .246094.113281.246094.25v.246093c0 .136719-.109375.25-.246094.25s-.25-.113281-.25-.25v-.246093c0-.136719.113281-.25.25-.25zm0 0" fill="#689f38" fill-opacity=".995816"/><path d="m4.796875 9.136719c-.136719 0-.25.113281-.25.25v.164062c0-.136719.113281-.246093.25-.246093s.246094.109374.246094.246093v-.164062c0-.136719-.109375-.25-.246094-.25zm0 0" fill="#fff" fill-opacity=".392157"/><path d="m4.796875 4.257812c-.183594 0-.332031.148438-.332031.332032v.164062c0-.179687.148437-.328125.332031-.328125h3.183594c.160156 0 .289062.148438.289062.328125v-.164062c0-.183594-.128906-.332032-.289062-.332032zm3.472656 5.789063v.167969h2.8125c.152344 0 .28125.101562.320313.246094.003906-.027344.007812-.054688.007812-.082032 0-.183594-.144531-.332031-.328125-.332031zm0 0" fill="#fff" fill-opacity=".392157"/><path d="m5.125 4.921875v.246094h2.484375v-.246094zm-.660156 2.8125v.246094c0 .183593.148437.332031.332031.332031s.328125-.148438.328125-.332031v-.246094c0 .179687-.144531.328125-.328125.328125s-.332031-.148438-.332031-.328125zm3.144531 2.644531v.246094c0 .183594.128906.332031.289063.332031h3.183593c.183594 0 .328125-.148437.328125-.332031 0-.042969-.007812-.085938-.023437-.121094-.046875.121094-.167969.207032-.304688.207032h-3.183593c-.160157 0-.289063-.148438-.289063-.332032zm0 0" fill-opacity=".235294"/><path d="m153.485343-78.76301c-5.874439 0-10.623986 4.749546-10.623986 10.623985v100.615392c0 5.749451 4.749547 10.498998 10.623986 10.498998s10.498997-4.749547 10.498997-10.498998v-89.991406h79.492409v174.608326c0 5.874439 4.124606 10.623985 9.249117 10.623985h101.865272c5.874439 0 10.498998-4.749546 10.498998-10.623985s-4.624559-10.623986-10.498998-10.623986h-89.991406v-174.608326c0-5.874439-4.124606-10.623985-9.249117-10.623985zm0 0" fill="none" stroke="#212121" stroke-linecap="square" stroke-linejoin="bevel" stroke-width="3" transform="matrix(.031253 0 0 .031253 0 6.719392)"/><path d="m4.464844 9.550781c-.183594 0-.332032.148438-.332032.332031v.164063c0-.183594.148438-.328125.332032-.328125h.164062v-.167969zm.496094 0v.167969h.164062c.183594 0 .332031.144531.332031.328125v-.164063c0-.183593-.148437-.332031-.332031-.332031zm-.332032.167969v.164062c0 .089844.074219.164063.167969.164063.089844 0 .164063-.074219.164063-.164063v-.164062c0 .089844-.074219.164062-.164063.164062-.09375 0-.167969-.074218-.167969-.164062zm0 0" fill="#fff" fill-opacity=".392157"/><path d="m4.132812 10.378906v.246094c0 .183594.148438.332031.332032.332031h.660156c.183594 0 .332031-.148437.332031-.332031v-.246094c0 .183594-.148437.332032-.332031.332032h-.660156c-.183594 0-.332032-.148438-.332032-.332032zm0 0" fill-opacity=".235294"/><g stroke="#212121" stroke-linecap="square" stroke-linejoin="bevel"><path d="m539.948466 1155.007873c-22.202605 0-40.153648 17.951043-40.153648 40.153648v59.994274c0 22.202605 17.951043 40.153648 40.153648 40.153648h79.8349c22.202605 0 40.153648-17.951043 40.153648-40.153648v-59.994274c0-22.202605-17.951043-40.153648-40.153648-40.153648h-19.840626v20.313022c0 10.865105-8.975521 19.840626-19.840626 19.840626-11.337501 0-20.313022-8.975521-20.313022-19.840626v-20.313022zm0 0" fill="none" stroke-width="11.338583" transform="scale(.00826902)"/><path d="m153.485343 77.347082c4.374582 0 7.874248 3.624654 7.874248 7.999236v7.874248c0 4.374583-3.499666 7.999237-7.874248 7.999237s-7.999236-3.624654-7.999236-7.999237v-7.874248c0-4.374582 3.624654-7.999236 7.999236-7.999236zm0 0" fill="#689f38" fill-opacity=".995816" stroke-width="3" transform="matrix(.031253 0 0 .031253 0 6.719392)"/></g></svg>

<?xml version="1.0" encoding="UTF-8"?>
<svg xmlns="http://www.w3.org/2000/svg" xmlns:xlink="http://www.w3.org/1999/xlink" width="16px" height="16px" viewBox="0 0 16 16" version="1.1">
<defs>
<linearGradient id="linear0" gradientUnits="userSpaceOnUse" x1="254" y1="233.5" x2="254" y2="254.666672" gradientTransform="matrix(0.031253,0,0,0.031253,-0.00000190753,6.719393)">
<stop offset="0" style="stop-color:rgb(0%,0%,0%);stop-opacity:0.27451;"/>
<stop offset="1" style="stop-color:rgb(0%,0%,0%);stop-opacity:0;"/>
</linearGradient>
<radialGradient id="radial0" gradientUnits="userSpaceOnUse" cx="450.908936" cy="189.579361" fx="450.908936" fy="189.579361" r="21.166656" gradientTransform="matrix(0.0000000870852,-0.0390662,-0.0703192,-0.0000000507693,26.065324,31.797666)">
<stop offset="0" style="stop-color:rgb(0%,0%,0%);stop-opacity:0.313726;"/>
<stop offset="0.222222" style="stop-color:rgb(0%,0%,0%);stop-opacity:0.27451;"/>
<stop offset="1" style="stop-color:rgb(0%,0%,0%);stop-opacity:0;"/>
</radialGradient>
<radialGradient id="radial1" gradientUnits="userSpaceOnUse" cx="450.908936" cy="189.579361" fx="450.908936" fy="189.579361" r="21.166656" gradientTransform="matrix(-0.0000000870852,0.0390662,0.0703192,0.0000000507693,-10.188807,-3.763739)">
<stop offset="0" style="stop-color:rgb(0%,0%,0%);stop-opacity:0.313726;"/>
<stop offset="0.222222" style="stop-color:rgb(0%,0%,0%);stop-opacity:0.27451;"/>
<stop offset="1" style="stop-color:rgb(0%,0%,0%);stop-opacity:0;"/>
</radialGradient>
<radialGradient id="radial2" gradientUnits="userSpaceOnUse" cx="450.908936" cy="189.579361" fx="450.908936" fy="189.579361" r="21.166656" gradientTransform="matrix(-0.0000000870852,-0.0390662,0.0703192,-0.0000000507693,-10.188807,31.797666)">
<stop offset="0" style="stop-color:rgb(0%,0%,0%);stop-opacity:0.313726;"/>
<stop offset="0.222222" style="stop-color:rgb(0%,0%,0%);stop-opacity:0.27451;"/>
<stop offset="1" style="stop-color:rgb(0%,0%,0%);stop-opacity:0;"/>
</radialGradient>
<radialGradient id="radial3" gradientUnits="userSpaceOnUse" cx="450.908936" cy="189.579361" fx="450.908936" fy="189.579361" r="21.166656" gradientTransform="matrix(0.0000000870852,0.0390662,-0.0703192,0.0000000507693,26.065323,-3.76374)">
<stop offset="0" style="stop-color:rgb(0%,0%,0%);stop-opacity:0.313726;"/>
<stop offset="0.222222" style="stop-color:rgb(0%,0%,0%);stop-opacity:0.27451;"/>
<stop offset="1" style="stop-color:rgb(0%,0%,0%);stop-opacity:0;"/>
</radialGradient>
<linearGradient id="linear1" gradientUnits="userSpaceOnUse" x1="169.333328" y1="233.5" x2="169.333328" y2="-168.666656" gradientTransform="matrix(0.031253,0,0,0.031253,0,6.719392)">
<stop offset="0" style="stop-color:rgb(25.882354%,25.882354%,25.882354%);stop-opacity:1;"/>
<stop offset="1" style="stop-color:rgb(38.039216%,38.039216%,38.039216%);stop-opacity:1;"/>
</linearGradient>
<linearGradient id="linear2" gradientUnits="userSpaceOnUse" x1="580" y1="1295.118164" x2="580" y2="1155.118164" gradientTransform="matrix(0.00826902,0,0,0.00826902,0,0)">
<stop offset="0" style="stop-color:rgb(93.725491%,32.549021%,31.37255%);stop-opacity:1;"/>
<stop offset="1" style="stop-color:rgb(89.803922%,45.09804%,45.09804%);stop-opacity:1;"/>
</linearGradient>
</defs>
<g id="surface1">
<path style=" stroke:none;fill-rule:nonzero;fill:url(#linear0);" d="M 2.976562 13.96875 L 12.898438 13.96875 L 12.898438 14.703125 L 2.976562 14.703125 Z M 2.976562 13.96875 "/>
<path style=" stroke:none;fill-rule:nonzero;fill:url(#radial0);" d="M 12.898438 14.015625 L 14.222656 14.015625 L 14.222656 13.355469 L 12.898438 13.355469 Z M 12.898438 14.015625 "/>
<path style=" stroke:none;fill-rule:nonzero;fill:url(#radial1);" d="M 2.976562 14.015625 L 1.652344 14.015625 L 1.652344 14.679688 L 2.976562 14.679688 Z M 2.976562 14.015625 "/>
<path style=" stroke:none;fill-rule:nonzero;fill:url(#radial2);" d="M 2.976562 14.015625 L 1.652344 14.015625 L 1.652344 13.355469 L 2.976562 13.355469 Z M 2.976562 14.015625 "/>
<path style=" stroke:none;fill-rule:nonzero;fill:url(#radial3);" d="M 12.898438 14.015625 L 14.222656 14.015625 L 14.222656 14.679688 L 12.898438 14.679688 Z M 12.898438 14.015625 "/>
<path style=" stroke:none;fill-rule:nonzero;fill:url(#linear1);" d="M 2.316406 1.449219 L 13.5625 1.449219 C 13.925781 1.449219 14.222656 1.746094 14.222656 2.109375 L 14.222656 13.355469 C 14.222656 13.722656 13.925781 14.015625 13.5625 14.015625 L 2.316406 14.015625 C 1.949219 14.015625 1.652344 13.722656 1.652344 13.355469 L 1.652344 2.109375 C 1.652344 1.746094 1.949219 1.449219 2.316406 1.449219 Z M 2.316406 1.449219 "/>
<path style=" stroke:none;fill-rule:nonzero;fill:rgb(90.196079%,90.196079%,90.196079%);fill-opacity:0.392157;" d="M 2.316406 1.449219 C 1.949219 1.449219 1.652344 1.742188 1.652344 2.109375 L 1.652344 2.191406 C 1.652344 1.824219 1.949219 1.53125 2.316406 1.53125 L 13.5625 1.53125 C 13.925781 1.53125 14.222656 1.824219 14.222656 2.191406 L 14.222656 2.109375 C 14.222656 1.742188 13.925781 1.449219 13.5625 1.449219 Z M 2.316406 1.449219 "/>
<path style=" stroke:none;fill-rule:nonzero;fill:rgb(0%,0%,0%);fill-opacity:0.196078;" d="M 2.316406 14.015625 C 1.949219 14.015625 1.652344 13.722656 1.652344 13.355469 L 1.652344 13.273438 C 1.652344 13.640625 1.949219 13.933594 2.316406 13.933594 L 13.5625 13.933594 C 13.925781 13.933594 14.222656 13.640625 14.222656 13.273438 L 14.222656 13.355469 C 14.222656 13.722656 13.925781 14.015625 13.5625 14.015625 Z M 2.316406 14.015625 "/>
<path style="fill:none;stroke-width:3;stroke-linecap:round;stroke-linejoin:miter;stroke:rgb(12.941177%,12.941177%,12.941177%);stroke-opacity:1;stroke-miterlimit:4;" d="M 74.117922 -168.629428 L 433.958559 -168.629428 C 445.582449 -168.629428 455.081542 -159.130335 455.081542 -147.506445 L 455.081542 212.334192 C 455.081542 224.08307 445.582449 233.457174 433.958559 233.457174 L 74.117922 233.457174 C 62.369044 233.457174 52.869951 224.08307 52.869951 212.334192 L 52.869951 -147.506445 C 52.869951 -159.130335 62.369044 -168.629428 74.117922 -168.629428 Z M 74.117922 -168.629428 " transform="matrix(0.031253,0,0,0.031253,0,6.719392)"/>
<path style=" stroke:none;fill-rule:nonzero;fill:rgb(50.588238%,78.039217%,51.764709%);fill-opacity:1;" d="M 4.796875 4.257812 C 4.613281 4.257812 4.464844 4.40625 4.464844 4.589844 L 4.464844 7.734375 C 4.464844 7.914062 4.613281 8.0625 4.796875 8.0625 C 4.980469 8.0625 5.125 7.914062 5.125 7.734375 L 5.125 4.921875 L 7.609375 4.921875 L 7.609375 10.378906 C 7.609375 10.5625 7.738281 10.710938 7.898438 10.710938 L 11.082031 10.710938 C 11.265625 10.710938 11.410156 10.5625 11.410156 10.378906 C 11.410156 10.195312 11.265625 10.046875 11.082031 10.046875 L 8.269531 10.046875 L 8.269531 4.589844 C 8.269531 4.40625 8.140625 4.257812 7.980469 4.257812 Z M 4.796875 4.257812 "/>
<path style=" stroke:none;fill-rule:nonzero;fill:url(#linear2);" d="M 4.464844 9.550781 C 4.28125 9.550781 4.132812 9.699219 4.132812 9.882812 L 4.132812 10.378906 C 4.132812 10.5625 4.28125 10.710938 4.464844 10.710938 L 5.125 10.710938 C 5.308594 10.710938 5.457031 10.5625 5.457031 10.378906 L 5.457031 9.882812 C 5.457031 9.699219 5.308594 9.550781 5.125 9.550781 L 4.960938 9.550781 L 4.960938 9.71875 C 4.960938 9.808594 4.886719 9.882812 4.796875 9.882812 C 4.703125 9.882812 4.628906 9.808594 4.628906 9.71875 L 4.628906 9.550781 Z M 4.464844 9.550781 "/>
<path style=" stroke:none;fill-rule:nonzero;fill:rgb(40.784314%,62.352943%,21.960784%);fill-opacity:0.995816;" d="M 4.796875 9.136719 C 4.933594 9.136719 5.042969 9.25 5.042969 9.386719 L 5.042969 9.632812 C 5.042969 9.769531 4.933594 9.882812 4.796875 9.882812 C 4.660156 9.882812 4.546875 9.769531 4.546875 9.632812 L 4.546875 9.386719 C 4.546875 9.25 4.660156 9.136719 4.796875 9.136719 Z M 4.796875 9.136719 "/>
<path style=" stroke:none;fill-rule:nonzero;fill:rgb(100%,100%,100%);fill-opacity:0.392157;" d="M 4.796875 9.136719 C 4.660156 9.136719 4.546875 9.25 4.546875 9.386719 L 4.546875 9.550781 C 4.546875 9.414062 4.660156 9.304688 4.796875 9.304688 C 4.933594 9.304688 5.042969 9.414062 5.042969 9.550781 L 5.042969 9.386719 C 5.042969 9.25 4.933594 9.136719 4.796875 9.136719 Z M 4.796875 9.136719 "/>
<path style=" stroke:none;fill-rule:nonzero;fill:rgb(100%,100%,100%);fill-opacity:0.392157;" d="M 4.796875 4.257812 C 4.613281 4.257812 4.464844 4.40625 4.464844 4.589844 L 4.464844 4.753906 C 4.464844 4.574219 4.613281 4.425781 4.796875 4.425781 L 7.980469 4.425781 C 8.140625 4.425781 8.269531 4.574219 8.269531 4.753906 L 8.269531 4.589844 C 8.269531 4.40625 8.140625 4.257812 7.980469 4.257812 Z M 8.269531 10.046875 L 8.269531 10.214844 L 11.082031 10.214844 C 11.234375 10.214844 11.363281 10.316406 11.402344 10.460938 C 11.40625 10.433594 11.410156 10.40625 11.410156 10.378906 C 11.410156 10.195312 11.265625 10.046875 11.082031 10.046875 Z M 8.269531 10.046875 "/>
<path style=" stroke:none;fill-rule:nonzero;fill:rgb(0%,0%,0%);fill-opacity:0.235294;" d="M 5.125 4.921875 L 5.125 5.167969 L 7.609375 5.167969 L 7.609375 4.921875 Z M 4.464844 7.734375 L 4.464844 7.980469 C 4.464844 8.164062 4.613281 8.3125 4.796875 8.3125 C 4.980469 8.3125 5.125 8.164062 5.125 7.980469 L 5.125 7.734375 C 5.125 7.914062 4.980469 8.0625 4.796875 8.0625 C 4.613281 8.0625 4.464844 7.914062 4.464844 7.734375 Z M 7.609375 10.378906 L 7.609375 10.625 C 7.609375 10.808594 7.738281 10.957031 7.898438 10.957031 L 11.082031 10.957031 C 11.265625 10.957031 11.410156 10.808594 11.410156 10.625 C 11.410156 10.582031 11.402344 10.539062 11.386719 10.503906 C 11.339844 10.625 11.21875 10.710938 11.082031 10.710938 L 7.898438 10.710938 C 7.738281 10.710938 7.609375 10.5625 7.609375 10.378906 Z M 7.609375 10.378906 "/>
<path style="fill:none;stroke-width:3;stroke-linecap:square;stroke-linejoin:bevel;stroke:rgb(12.941177%,12.941177%,12.941177%);stroke-opacity:1;stroke-miterlimit:4;" d="M 153.485343 -78.76301 C 147.610904 -78.76301 142.861357 -74.013464 142.861357 -68.139025 L 142.861357 32.476367 C 142.861357 38.225818 147.610904 42.975365 153.485343 42.975365 C 159.359782 42.975365 163.98434 38.225818 163.98434 32.476367 L 163.98434 -57.515039 L 243.476749 -57.515039 L 243.476749 117.093287 C 243.476749 122.967726 247.601355 127.717272 252.725866 127.717272 L 354.591138 127.717272 C 360.465577 127.717272 365.090136 122.967726 365.090136 117.093287 C 365.090136 111.218848 360.465577 106.469301 354.591138 106.469301 L 264.599732 106.469301 L 264.599732 -68.139025 C 264.599732 -74.013464 260.475126 -78.76301 255.350615 -78.76301 Z M 153.485343 -78.76301 " transform="matrix(0.031253,0,0,0.031253,0,6.719392)"/>
<path style=" stroke:none;fill-rule:nonzero;fill:rgb(100%,100%,100%);fill-opacity:0.392157;" d="M 4.464844 9.550781 C 4.28125 9.550781 4.132812 9.699219 4.132812 9.882812 L 4.132812 10.046875 C 4.132812 9.863281 4.28125 9.71875 4.464844 9.71875 L 4.628906 9.71875 L 4.628906 9.550781 Z M 4.960938 9.550781 L 4.960938 9.71875 L 5.125 9.71875 C 5.308594 9.71875 5.457031 9.863281 5.457031 10.046875 L 5.457031 9.882812 C 5.457031 9.699219 5.308594 9.550781 5.125 9.550781 Z M 4.628906 9.71875 L 4.628906 9.882812 C 4.628906 9.972656 4.703125 10.046875 4.796875 10.046875 C 4.886719 10.046875 4.960938 9.972656 4.960938 9.882812 L 4.960938 9.71875 C 4.960938 9.808594 4.886719 9.882812 4.796875 9.882812 C 4.703125 9.882812 4.628906 9.808594 4.628906 9.71875 Z M 4.628906 9.71875 "/>
<path style=" stroke:none;fill-rule:nonzero;fill:rgb(0%,0%,0%);fill-opacity:0.235294;" d="M 4.132812 10.378906 L 4.132812 10.625 C 4.132812 10.808594 4.28125 10.957031 4.464844 10.957031 L 5.125 10.957031 C 5.308594 10.957031 5.457031 10.808594 5.457031 10.625 L 5.457031 10.378906 C 5.457031 10.5625 5.308594 10.710938 5.125 10.710938 L 4.464844 10.710938 C 4.28125 10.710938 4.132812 10.5625 4.132812 10.378906 Z M 4.132812 10.378906 "/>
<path style="fill:none;stroke-width:11.338583;stroke-linecap:square;stroke-linejoin:bevel;stroke:rgb(12.941177%,12.941177%,12.941177%);stroke-opacity:1;stroke-miterlimit:4;" d="M 539.948466 1155.007873 C 517.745861 1155.007873 499.794818 1172.958916 499.794818 1195.161521 L 499.794818 1255.155795 C 499.794818 1277.3584 517.745861 1295.309443 539.948466 1295.309443 L 619.783366 1295.309443 C 641.985971 1295.309443 659.937014 1277.3584 659.937014 1255.155795 L 659.937014 1195.161521 C 659.937014 1172.958916 641.985971 1155.007873 619.783366 1155.007873 L 599.94274 1155.007873 L 599.94274 1175.320895 C 599.94274 1186.186 590.967219 1195.161521 580.102114 1195.161521 C 568.764613 1195.161521 559.789092 1186.186 559.789092 1175.320895 L 559.789092 1155.007873 Z M 539.948466 1155.007873 " transform="matrix(0.00826902,0,0,0.00826902,0,0)"/>
<path style="fill-rule:nonzero;fill:rgb(40.784314%,62.352943%,21.960784%);fill-opacity:0.995816;stroke-width:3;stroke-linecap:square;stroke-linejoin:bevel;stroke:rgb(12.941177%,12.941177%,12.941177%);stroke-opacity:1;stroke-miterlimit:4;" d="M 153.485343 77.347082 C 157.859925 77.347082 161.359591 80.971736 161.359591 85.346318 L 161.359591 93.220566 C 161.359591 97.595149 157.859925 101.219803 153.485343 101.219803 C 149.110761 101.219803 145.486107 97.595149 145.486107 93.220566 L 145.486107 85.346318 C 145.486107 80.971736 149.110761 77.347082 153.485343 77.347082 Z M 153.485343 77.347082 " transform="matrix(0.031253,0,0,0.031253,0,6.719392)"/>
</g>
</svg>
